dhis-2/dhis-support/dhis-support-system/src/main/resources/SVGs/pill_1_positive.svg

<svg width="48" height="48" viewBox="0 0 48 48" fill="none" xmlns="http://www.w3.org/2000/svg">
<path fill-rule="evenodd" clip-rule="evenodd" d="M23.9997 4.00006C14.0278 4.01286 5.70292 11.342 4.24994 21.0078C3.90344 22.9898 4.99933 22.9998 6.00971 22.9998H41.9993C42.9993 22.9998 43.9636 22.6409 43.7531 20.9275C42.2662 11.2947 33.9503 4.00476 23.9994 3.99976L23.9997 4.00006ZM6.05491 24.9998C5.00033 24.9998 4.02874 25.2898 4.24044 27.0328C5.71122 36.6846 14.0361 43.9946 24.0002 43.9996C33.9421 43.9866 42.247 36.7026 43.7359 27.0798C44.1169 24.9958 42.9999 24.9998 41.875 24.9998H6.05491Z" fill="#333333"/>
</svg>

<?xml version="1.0" encoding="UTF-8" standalone="no"?>
<!-- Created with Inkscape (http://www.inkscape.org/) -->
<svg id="svg8" xmlns:rdf="http://www.w3.org/1999/02/22-rdf-syntax-ns#" xmlns="http://www.w3.org/2000/svg" xmlns:osb="http://www.openswatchbook.org/uri/2009/osb" height="48" width="48" version="1.1" xmlns:cc="http://creativecommons.org/ns#" viewBox="0 0 12.7 12.7" xmlns:dc="http://purl.org/dc/elements/1.1/">
 <title id="title4753">UIO-icon</title>
 <metadata id="metadata5">
  <rdf:RDF>
   <cc:Work rdf:about="">
    <dc:format>image/svg+xml</dc:format>
    <dc:type rdf:resource="http://purl.org/dc/dcmitype/StillImage"/>
    <dc:title>UIO-icon</dc:title>
    <dc:creator>
     <cc:Agent>
      <dc:title>Joaquín Urbano</dc:title>
     </cc:Agent>
    </dc:creator>
    <dc:rights>
     <cc:Agent>
      <dc:title>GPL</dc:title>
     </cc:Agent>
    </dc:rights>
   </cc:Work>
  </rdf:RDF>
 </metadata>
 <g id="layer1" transform="translate(0,-284.3)" fill="#333">
  <path id="path878" d="m24 4c-9.972 0.0128-18.297 7.342-19.75 17.008-0.3465 1.982 0.7494 1.992 1.7598 1.992h35.99c1 0 1.9644-0.35892 1.7539-2.0723-1.487-9.633-9.803-16.923-19.754-16.928zm-17.945 21c-1.0546 0-2.0262 0.29-1.8145 2.033 1.4708 9.652 9.7958 16.962 19.76 16.967 9.942-0.013 18.247-7.297 19.736-16.92 0.381-2.084-0.736-2.08-1.861-2.08z" fill-rule="evenodd" transform="matrix(.26458 0 0 .26458 0 284.3)"/>
 </g>
</svg>
